components/Common/Svg/svgs/visitSite.svg

<svg
  width="120"
  height="40"
  viewBox="0 0 120 40"
  fill="none"
  xmlns="http://www.w3.org/2000/svg"
>
  <rect
    x="0.292546"
    y="0.292424"
    width="119.415"
    height="39.4149"
    rx="4.38819"
    stroke="white"
    stroke-width="0.585093"
  ></rect>
  <path
    d="M40.436 15.2709L36.782 25.0009H34.934L31.266 15.2709H32.974L35.858 23.3629L38.756 15.2709H40.436ZM42.5827 16.2649C42.2934 16.2649 42.0507 16.1669 41.8547 15.9709C41.6587 15.7749 41.5607 15.5322 41.5607 15.2429C41.5607 14.9535 41.6587 14.7109 41.8547 14.5149C42.0507 14.3189 42.2934 14.2209 42.5827 14.2209C42.8627 14.2209 43.1007 14.3189 43.2967 14.5149C43.4927 14.7109 43.5907 14.9535 43.5907 15.2429C43.5907 15.5322 43.4927 15.7749 43.2967 15.9709C43.1007 16.1669 42.8627 16.2649 42.5827 16.2649ZM43.3667 17.2869V25.0009H41.7707V17.2869H43.3667ZM48.2621 25.1269C47.6554 25.1269 47.1094 25.0195 46.6241 24.8049C46.1481 24.5809 45.7701 24.2822 45.4901 23.9089C45.2101 23.5262 45.0608 23.1015 45.0421 22.6349H46.6941C46.7221 22.9615 46.8761 23.2369 47.1561 23.4609C47.4454 23.6755 47.8048 23.7829 48.2341 23.7829C48.6821 23.7829 49.0274 23.6989 49.2701 23.5309C49.5221 23.3535 49.6481 23.1295 49.6481 22.8589C49.6481 22.5695 49.5081 22.3549 49.2281 22.2149C48.9574 22.0749 48.5234 21.9209 47.9261 21.7529C47.3474 21.5942 46.8761 21.4402 46.5121 21.2909C46.1481 21.1415 45.8308 20.9129 45.5601 20.6049C45.2988 20.2969 45.1681 19.8909 45.1681 19.3869C45.1681 18.9762 45.2894 18.6029 45.5321 18.2669C45.7748 17.9215 46.1201 17.6509 46.5681 17.4549C47.0254 17.2589 47.5481 17.1609 48.1361 17.1609C49.0134 17.1609 49.7181 17.3849 50.2501 17.8329C50.7914 18.2715 51.0808 18.8735 51.1181 19.6389H49.5221C49.4941 19.2935 49.3541 19.0182 49.1021 18.8129C48.8501 18.6075 48.5094 18.5049 48.0801 18.5049C47.6601 18.5049 47.3381 18.5842 47.1141 18.7429C46.8901 18.9015 46.7781 19.1115 46.7781 19.3729C46.7781 19.5782 46.8528 19.7509 47.0021 19.8909C47.1514 20.0309 47.3334 20.1429 47.5481 20.2269C47.7628 20.3015 48.0801 20.3995 48.5001 20.5209C49.0601 20.6702 49.5174 20.8242 49.8721 20.9829C50.2361 21.1322 50.5488 21.3562 50.8101 21.6549C51.0714 21.9535 51.2068 22.3502 51.2161 22.8449C51.2161 23.2835 51.0948 23.6755 50.8521 24.0209C50.6094 24.3662 50.2641 24.6369 49.8161 24.8329C49.3774 25.0289 48.8594 25.1269 48.2621 25.1269ZM53.7526 16.2649C53.4633 16.2649 53.2206 16.1669 53.0246 15.9709C52.8286 15.7749 52.7306 15.5322 52.7306 15.2429C52.7306 14.9535 52.8286 14.7109 53.0246 14.5149C53.2206 14.3189 53.4633 14.2209 53.7526 14.2209C54.0326 14.2209 54.2706 14.3189 54.4666 14.5149C54.6626 14.7109 54.7606 14.9535 54.7606 15.2429C54.7606 15.5322 54.6626 15.7749 54.4666 15.9709C54.2706 16.1669 54.0326 16.2649 53.7526 16.2649ZM54.5366 17.2869V25.0009H52.9406V17.2869H54.5366ZM58.494 18.5889V22.8589C58.494 23.1482 58.5594 23.3582 58.69 23.4889C58.83 23.6102 59.0634 23.6709 59.39 23.6709H60.37V25.0009H59.11C58.3914 25.0009 57.8407 24.8329 57.458 24.4969C57.0754 24.1609 56.884 23.6149 56.884 22.8589V18.5889H55.974V17.2869H56.884V15.3689H58.494V17.2869H60.37V18.5889H58.494ZM68.2777 25.1269C67.6711 25.1269 67.1251 25.0195 66.6397 24.8049C66.1637 24.5809 65.7857 24.2822 65.5057 23.9089C65.2257 23.5262 65.0764 23.1015 65.0577 22.6349H66.7097C66.7377 22.9615 66.8917 23.2369 67.1717 23.4609C67.4611 23.6755 67.8204 23.7829 68.2497 23.7829C68.6977 23.7829 69.0431 23.6989 69.2857 23.5309C69.5377 23.3535 69.6637 23.1295 69.6637 22.8589C69.6637 22.5695 69.5237 22.3549 69.2437 22.2149C68.9731 22.0749 68.5391 21.9209 67.9417 21.7529C67.3631 21.5942 66.8917 21.4402 66.5277 21.2909C66.1637 21.1415 65.8464 20.9129 65.5757 20.6049C65.3144 20.2969 65.1837 19.8909 65.1837 19.3869C65.1837 18.9762 65.3051 18.6029 65.5477 18.2669C65.7904 17.9215 66.1357 17.6509 66.5837 17.4549C67.0411 17.2589 67.5637 17.1609 68.1517 17.1609C69.0291 17.1609 69.7337 17.3849 70.2657 17.8329C70.8071 18.2715 71.0964 18.8735 71.1337 19.6389H69.5377C69.5097 19.2935 69.3697 19.0182 69.1177 18.8129C68.8657 18.6075 68.5251 18.5049 68.0957 18.5049C67.6757 18.5049 67.3537 18.5842 67.1297 18.7429C66.9057 18.9015 66.7937 19.1115 66.7937 19.3729C66.7937 19.5782 66.8684 19.7509 67.0177 19.8909C67.1671 20.0309 67.3491 20.1429 67.5637 20.2269C67.7784 20.3015 68.0957 20.3995 68.5157 20.5209C69.0757 20.6702 69.5331 20.8242 69.8877 20.9829C70.2517 21.1322 70.5644 21.3562 70.8257 21.6549C71.0871 21.9535 71.2224 22.3502 71.2317 22.8449C71.2317 23.2835 71.1104 23.6755 70.8677 24.0209C70.6251 24.3662 70.2797 24.6369 69.8317 24.8329C69.3931 25.0289 68.8751 25.1269 68.2777 25.1269ZM73.7683 16.2649C73.4789 16.2649 73.2363 16.1669 73.0403 15.9709C72.8443 15.7749 72.7463 15.5322 72.7463 15.2429C72.7463 14.9535 72.8443 14.7109 73.0403 14.5149C73.2363 14.3189 73.4789 14.2209 73.7683 14.2209C74.0483 14.2209 74.2863 14.3189 74.4823 14.5149C74.6783 14.7109 74.7763 14.9535 74.7763 15.2429C74.7763 15.5322 74.6783 15.7749 74.4823 15.9709C74.2863 16.1669 74.0483 16.2649 73.7683 16.2649ZM74.5523 17.2869V25.0009H72.9563V17.2869H74.5523ZM78.5097 18.5889V22.8589C78.5097 23.1482 78.575 23.3582 78.7057 23.4889C78.8457 23.6102 79.079 23.6709 79.4057 23.6709H80.3857V25.0009H79.1257C78.407 25.0009 77.8563 24.8329 77.4737 24.4969C77.091 24.1609 76.8997 23.6149 76.8997 22.8589V18.5889H75.9897V17.2869H76.8997V15.3689H78.5097V17.2869H80.3857V18.5889H78.5097ZM88.9266 20.9549C88.9266 21.2442 88.908 21.5055 88.8706 21.7389H82.9766C83.0233 22.3549 83.252 22.8495 83.6626 23.2229C84.0733 23.5962 84.5773 23.7829 85.1746 23.7829C86.0333 23.7829 86.64 23.4235 86.9946 22.7049H88.7166C88.4833 23.4142 88.0586 23.9975 87.4426 24.4549C86.836 24.9029 86.08 25.1269 85.1746 25.1269C84.4373 25.1269 83.7746 24.9635 83.1866 24.6369C82.608 24.3009 82.1506 23.8342 81.8146 23.2369C81.488 22.6302 81.3246 21.9302 81.3246 21.1369C81.3246 20.3435 81.4833 19.6482 81.8006 19.0509C82.1273 18.4442 82.58 17.9775 83.1586 17.6509C83.7466 17.3242 84.4186 17.1609 85.1746 17.1609C85.9026 17.1609 86.5513 17.3195 87.1206 17.6369C87.69 17.9542 88.1333 18.4022 88.4506 18.9809C88.768 19.5502 88.9266 20.2082 88.9266 20.9549ZM87.2606 20.4509C87.2513 19.8629 87.0413 19.3915 86.6306 19.0369C86.22 18.6822 85.7113 18.5049 85.1046 18.5049C84.554 18.5049 84.0826 18.6822 83.6906 19.0369C83.2986 19.3822 83.0653 19.8535 82.9906 20.4509H87.2606Z"
    fill="white"
  ></path>
</svg>

<svg width="120" height="40" viewBox="0 0 120 40" fill="none" xmlns="http://www.w3.org/2000/svg"><rect x=".293" y=".292" width="119.415" height="39.415" rx="4.388" stroke="#fff" stroke-width=".585"/><path d="M40.436 15.27 36.782 25h-1.848l-3.668-9.73h1.708l2.884 8.093 2.898-8.092h1.68Zm2.147.995a.989.989 0 0 1-.728-.294.989.989 0 0 1-.294-.728c0-.29.098-.532.294-.728a.989.989 0 0 1 .728-.294c.28 0 .518.098.714.294a.989.989 0 0 1 .294.728c0 .29-.098.532-.294.728a.972.972 0 0 1-.714.294Zm.784 1.022V25H41.77v-7.714h1.596Zm4.895 7.84a4.01 4.01 0 0 1-1.638-.322 2.96 2.96 0 0 1-1.134-.896 2.267 2.267 0 0 1-.448-1.274h1.652c.028.326.182.602.462.826.29.215.649.322 1.078.322.448 0 .793-.084 1.036-.252.252-.177.378-.401.378-.672 0-.29-.14-.504-.42-.644-.27-.14-.705-.294-1.302-.462a12.645 12.645 0 0 1-1.414-.462 2.54 2.54 0 0 1-.952-.686c-.261-.308-.392-.714-.392-1.218 0-.41.121-.784.364-1.12.243-.345.588-.616 1.036-.812.457-.196.98-.294 1.568-.294.877 0 1.582.224 2.114.672.541.439.83 1.04.868 1.806h-1.596a1.137 1.137 0 0 0-.42-.826c-.252-.205-.593-.308-1.022-.308-.42 0-.742.08-.966.238a.737.737 0 0 0-.336.63c0 .205.075.378.224.518.15.14.331.252.546.336.215.075.532.172.952.294.56.15 1.017.303 1.372.462.364.15.677.373.938.672.261.298.397.695.406 1.19 0 .439-.121.83-.364 1.176-.243.345-.588.616-1.036.812-.439.196-.957.294-1.554.294Zm5.49-8.862a.989.989 0 0 1-.727-.294.989.989 0 0 1-.294-.728c0-.29.098-.532.294-.728a.989.989 0 0 1 .728-.294c.28 0 .518.098.714.294a.989.989 0 0 1 .294.728c0 .29-.098.532-.294.728a.972.972 0 0 1-.714.294Zm.785 1.022V25H52.94v-7.714h1.596Zm3.957 1.302v4.27c0 .29.065.5.196.63.14.121.373.182.7.182h.98V25h-1.26c-.719 0-1.27-.168-1.652-.504-.383-.336-.574-.882-.574-1.638v-4.27h-.91v-1.302h.91v-1.918h1.61v1.918h1.876v1.302h-1.876Zm9.784 6.538a4.01 4.01 0 0 1-1.638-.322 2.96 2.96 0 0 1-1.134-.896 2.267 2.267 0 0 1-.448-1.274h1.652c.028.326.182.602.462.826.29.215.648.322 1.078.322.448 0 .793-.084 1.036-.252.252-.177.378-.401.378-.672 0-.29-.14-.504-.42-.644-.27-.14-.705-.294-1.302-.462a12.652 12.652 0 0 1-1.414-.462 2.54 2.54 0 0 1-.952-.686c-.262-.308-.392-.714-.392-1.218 0-.41.121-.784.364-1.12.242-.345.588-.616 1.036-.812.457-.196.98-.294 1.568-.294.877 0 1.582.224 2.114.672.541.439.83 1.04.868 1.806h-1.596a1.137 1.137 0 0 0-.42-.826c-.252-.205-.593-.308-1.022-.308-.42 0-.742.08-.966.238a.737.737 0 0 0-.336.63c0 .205.074.378.224.518.15.14.331.252.546.336.214.075.532.172.952.294.56.15 1.017.303 1.372.462.364.15.676.373.938.672.261.298.396.695.406 1.19 0 .439-.122.83-.364 1.176-.243.345-.588.616-1.036.812-.439.196-.957.294-1.554.294Zm5.49-8.862a.989.989 0 0 1-.728-.294.989.989 0 0 1-.294-.728c0-.29.098-.532.294-.728a.989.989 0 0 1 .728-.294c.28 0 .518.098.714.294a.989.989 0 0 1 .294.728c0 .29-.098.532-.294.728a.972.972 0 0 1-.714.294Zm.784 1.022V25h-1.596v-7.714h1.596Zm3.958 1.302v4.27c0 .29.065.5.196.63.14.121.373.182.7.182h.98V25h-1.26c-.719 0-1.27-.168-1.652-.504-.383-.336-.574-.882-.574-1.638v-4.27h-.91v-1.302h.91v-1.918h1.61v1.918h1.876v1.302H78.51Zm10.417 2.366c0 .29-.019.55-.056.784h-5.894c.046.616.275 1.11.686 1.484.41.373.914.56 1.512.56.858 0 1.465-.36 1.82-1.078h1.722a3.498 3.498 0 0 1-1.274 1.75c-.607.448-1.363.672-2.268.672-.738 0-1.4-.163-1.988-.49a3.663 3.663 0 0 1-1.372-1.4c-.327-.607-.49-1.307-.49-2.1 0-.794.158-1.489.476-2.086a3.444 3.444 0 0 1 1.358-1.4c.588-.327 1.26-.49 2.016-.49.728 0 1.376.159 1.946.476a3.35 3.35 0 0 1 1.33 1.344c.317.57.476 1.227.476 1.974Zm-1.666-.504c-.01-.588-.22-1.06-.63-1.414-.411-.355-.92-.532-1.526-.532-.551 0-1.022.177-1.414.532-.392.345-.626.817-.7 1.414h4.27Z" fill="#fff"/></svg>
